symbols/web/masks/materialsymbolsrounded/masks_wght100gradN25_40px.svg

<svg xmlns="http://www.w3.org/2000/svg" height="40" width="40"><path d="M20 28q-1.25 0-2.458-.375-1.209-.375-2.292-1.083-1.458-.042-3.062-.604-1.605-.563-2.896-1.792Q8 22.917 7.167 20.917q-.834-2-.834-5.084v-.875q0-1.291.834-2.145.833-.855 2.125-.855 1.166 0 2 1 .833 1 1 2.417 1.291-.333 2.041-.667.75-.333 1.375-.666 1.125-.584 2.063-.979.937-.396 2.229-.396t2.25.396q.958.395 2.083.979.625.333 1.355.666.729.334 2.062.667.125-1.458.958-2.437.834-.98 2-.98 1.292 0 2.146.855.854.854.854 2.145v.875q0 3.084-.854 5.084-.854 2-2.146 3.229-1.291 1.229-2.896 1.792-1.604.562-3.062.604-1.083.708-2.292 1.083Q21.25 28 20 28Zm-6.125-2.5q-1.125-1.167-1.833-2.75-.709-1.583-.709-3.458v-4.334q0-.833-.604-1.437-.604-.604-1.437-.604-.834 0-1.417.604-.583.604-.583 1.437v.875q0 5.125 2.125 7.105 2.125 1.979 4.458 2.562ZM20 27.042q3.208 0 5.479-2.271t2.271-5.479v-2.917q-1.417-.333-2.396-.708-.979-.375-1.687-.792-1.084-.667-1.896-.958-.813-.292-1.771-.292-.917 0-1.708.313-.792.312-1.834.937-.791.417-1.75.833-.958.417-2.416.667v2.917q0 3.208 2.25 5.479T20 27.042Zm6.083-1.5q2.375-.584 4.521-2.604 2.146-2.021 2.146-7.105v-.875q0-.833-.604-1.437-.604-.604-1.438-.604-.833 0-1.416.604-.584.604-.584 1.437v4.334q0 1.875-.75 3.52-.75 1.646-1.875 2.73Zm-9.5-7.209q.417-.125.771-.312.354-.188.729-.438.459-.25.917-.479.458-.229 1-.229.583 0 1 .208.417.209.917.5.333.209.708.417.375.208.792.417.291.083.5-.042.208-.125.208-.542 0-.083-.083-.25-.084-.166-.209-.208-.416-.125-.708-.292-.292-.166-.625-.375-.583-.333-1.125-.604-.542-.271-1.375-.271t-1.396.271q-.562.271-1.146.604-.333.25-.604.396-.271.146-.646.271-.166.083-.25.229-.083.146-.083.229 0 .334.208.479.209.146.5.021Zm3.417 2Z"/></svg>

<svg xmlns="http://www.w3.org/2000/svg" height="40" width="40"><path d="M20 28Q18.75 28 17.542 27.625Q16.333 27.25 15.25 26.542Q13.792 26.5 12.188 25.938Q10.583 25.375 9.292 24.146Q8 22.917 7.167 20.917Q6.333 18.917 6.333 15.833V14.958Q6.333 13.667 7.167 12.813Q8 11.958 9.292 11.958Q10.458 11.958 11.292 12.958Q12.125 13.958 12.292 15.375Q13.583 15.042 14.333 14.708Q15.083 14.375 15.708 14.042Q16.833 13.458 17.771 13.063Q18.708 12.667 20 12.667Q21.292 12.667 22.25 13.063Q23.208 13.458 24.333 14.042Q24.958 14.375 25.688 14.708Q26.417 15.042 27.75 15.375Q27.875 13.917 28.708 12.938Q29.542 11.958 30.708 11.958Q32 11.958 32.854 12.813Q33.708 13.667 33.708 14.958V15.833Q33.708 18.917 32.854 20.917Q32 22.917 30.708 24.146Q29.417 25.375 27.812 25.938Q26.208 26.5 24.75 26.542Q23.667 27.25 22.458 27.625Q21.25 28 20 28ZM13.875 25.5Q12.75 24.333 12.042 22.75Q11.333 21.167 11.333 19.292V14.958Q11.333 14.125 10.729 13.521Q10.125 12.917 9.292 12.917Q8.458 12.917 7.875 13.521Q7.292 14.125 7.292 14.958V15.833Q7.292 20.958 9.417 22.938Q11.542 24.917 13.875 25.5ZM20 27.042Q23.208 27.042 25.479 24.771Q27.75 22.5 27.75 19.292V16.375Q26.333 16.042 25.354 15.667Q24.375 15.292 23.667 14.875Q22.583 14.208 21.771 13.917Q20.958 13.625 20 13.625Q19.083 13.625 18.292 13.938Q17.5 14.25 16.458 14.875Q15.667 15.292 14.708 15.708Q13.75 16.125 12.292 16.375V19.292Q12.292 22.5 14.542 24.771Q16.792 27.042 20 27.042ZM26.083 25.542Q28.458 24.958 30.604 22.938Q32.75 20.917 32.75 15.833V14.958Q32.75 14.125 32.146 13.521Q31.542 12.917 30.708 12.917Q29.875 12.917 29.292 13.521Q28.708 14.125 28.708 14.958V19.292Q28.708 21.167 27.958 22.812Q27.208 24.458 26.083 25.542ZM16.583 18.333Q17 18.208 17.354 18.021Q17.708 17.833 18.083 17.583Q18.542 17.333 19 17.104Q19.458 16.875 20 16.875Q20.583 16.875 21 17.083Q21.417 17.292 21.917 17.583Q22.25 17.792 22.625 18Q23 18.208 23.417 18.417Q23.708 18.5 23.917 18.375Q24.125 18.25 24.125 17.833Q24.125 17.75 24.042 17.583Q23.958 17.417 23.833 17.375Q23.417 17.25 23.125 17.083Q22.833 16.917 22.5 16.708Q21.917 16.375 21.375 16.104Q20.833 15.833 20 15.833Q19.167 15.833 18.604 16.104Q18.042 16.375 17.458 16.708Q17.125 16.958 16.854 17.104Q16.583 17.25 16.208 17.375Q16.042 17.458 15.958 17.604Q15.875 17.75 15.875 17.833Q15.875 18.167 16.083 18.312Q16.292 18.458 16.583 18.333ZM20 20.333Q20 20.333 20 20.333Q20 20.333 20 20.333Q20 20.333 20 20.333Q20 20.333 20 20.333Q20 20.333 20 20.333Q20 20.333 20 20.333Q20 20.333 20 20.333Q20 20.333 20 20.333Q20 20.333 20 20.333Q20 20.333 20 20.333Q20 20.333 20 20.333Q20 20.333 20 20.333Z"/></svg>
